X:866
T:Brudmarsch
T:efter Pelle Fors
R:Marsch
Z:Björn Ek 2008-12-31
O:Vikbolandet, Östergötland
S:efter Pelle Fors
B:Låtar efter Pelle Fors
M:2/4
L:1/8
K:G
D|:G>A Bc |d2 ((3BcB)   |A>c ed|d3 B |
(dg) (gd)|(dB) {/B}(cA)|1DG BG|D3 D:|2DG BA|G3 B||
%
|:d>e dc|B2 ((5:4g/a/g/f/g/)|d3 d  |B3 G |
G>B df  |a3 G               |G>B dg|(bg) (ge)|
d>e dc  |B2 ((5:4g/a/g/f/g/)|d3 d  |B3 G |
G>B df  |a2 b2              |1g3 B:|2g3  |]
(:musicend:)

(:music:)
